X:699
T:
N:Folkviseton utan täxt. Har understundom begagnats att marschera efter.
S:Uppt. efter Maria Pettersson Flors i Burs.
R:marsch
O:Gotland, Burs
M:2/4
L:1/8
K:F
A|c> A F A|c> A d c|c> B G G|F2 z A|G> F E F|G B d c|A2 HF:|
|:A|c> A B A|G3 d|c> B A c|F3 A|G> F E F|G B d c|A2 HF:|

